Numix-GalliumOS/48/status/dialog-password.svg

<?xml version="1.0" encoding="UTF-8" standalone="no"?>
<!-- Created with Inkscape (http://www.inkscape.org/) -->

<svg
   xmlns:dc="http://purl.org/dc/elements/1.1/"
   xmlns:cc="http://creativecommons.org/ns#"
   xmlns:rdf="http://www.w3.org/1999/02/22-rdf-syntax-ns#"
   xmlns:svg="http://www.w3.org/2000/svg"
   xmlns="http://www.w3.org/2000/svg"
   xmlns:sodipodi="http://sodipodi.sourceforge.net/DTD/sodipodi-0.dtd"
   xmlns:inkscape="http://www.inkscape.org/namespaces/inkscape"
   id="svg2"
   version="1.1"
   inkscape:version="0.91 r"
   xml:space="preserve"
   width="48"
   height="48"
   viewBox="0 0 48 48"
   sodipodi:docname="dialog-password.svg"><metadata
     id="metadata8"><rdf:RDF><cc:Work
         rdf:about=""><dc:format>image/svg+xml</dc:format><dc:type
           rdf:resource="http://purl.org/dc/dcmitype/StillImage" /><dc:title /></cc:Work></rdf:RDF></metadata><defs
     id="defs6" /><sodipodi:namedview
     pagecolor="#ffffff"
     bordercolor="#666666"
     borderopacity="1"
     objecttolerance="10"
     gridtolerance="10"
     guidetolerance="10"
     inkscape:pageopacity="0"
     inkscape:pageshadow="2"
     inkscape:window-width="1366"
     inkscape:window-height="747"
     id="namedview4"
     showgrid="true"
     inkscape:zoom="7.5853271"
     inkscape:cx="-5.0503555"
     inkscape:cy="21.284541"
     inkscape:window-x="0"
     inkscape:window-y="21"
     inkscape:window-maximized="1"
     inkscape:current-layer="g10"><inkscape:grid
       type="xygrid"
       id="grid4142" /></sodipodi:namedview><g
     id="g10"
     inkscape:groupmode="layer"
     inkscape:label="dialog-password"
     transform="matrix(1.25,0,0,-1.25,0,48)"><path
       sodipodi:nodetypes="scsscccccccsssssss"
       inkscape:connector-curvature="0"
       id="path14"
       d="M 26.420313,28 C 23.130131,28 20.12,25.57891 18.8,22.400001 l -10.1999999,0 c -3.4952727,0 -5.1999999,-1.452364 -5.1999999,-3.2 C 3.4000002,17.452364 5.1047274,16 8.6000001,16 L 10.2,12.000001 12.020313,17.6 15.6,12.000001 17.4,16 l 1.4,0 c 1.311273,-3.178908 4.323586,-5.591272 7.620313,-5.599999 4.577455,0 8.579686,3.984727 8.579686,8.8 C 34.999999,24.799999 30.997768,28 26.420313,28 Z M 29.4,20.800001 c 0.883654,0 1.6,-0.716345 1.6,-1.6 C 31,18.316345 30.283654,17.6 29.4,17.6 c -0.883656,0 -1.599999,0.716345 -1.599999,1.600001 0,0.883655 0.716343,1.6 1.599999,1.6 z"
       style="fill:#6d6d6d;fill-opacity:1;fill-rule:nonzero;stroke:none" /></g></svg>

<svg xmlns="http://www.w3.org/2000/svg" viewBox="0 0 48 48">
 <g transform="matrix(1.25,0,0,-1.25,0,48)">
  <path d="m 26.42 28 c -3.29 0 -6.3 -2.421 -7.62 -5.6 l -10.2 0 c -3.495 0 -5.2 -1.452 -5.2 -3.2 c 0 -1.748 1.705 -3.2 5.2 -3.2 l 1.6 -4 1.82 5.6 3.58 -5.6 1.8 4 l 1.4 0 c 1.311 -3.179 4.324 -5.591 7.62 -5.6 4.577 0 8.58 3.985 8.58 8.8 c 0 5.6 -4 8.8 -8.58 8.8 m 2.98 -7.2 c 0.884 0 1.6 -0.716 1.6 -1.6 c 0 -0.884 -0.716 -1.6 -1.6 -1.6 c -0.884 0 -1.6 0.716 -1.6 1.6 0 0.884 0.716 1.6 1.6 1.6 z" style="fill:#6d6d6d;fill-opacity:1;stroke:none;fill-rule:nonzero"/>
 </g>
</svg>
